src/assets/imgs/icons/email.svg

<svg width="24" height="24" viewBox="0 0 24 24" fill="none" xmlns="http://www.w3.org/2000/svg">
<path fill-rule="evenodd" clip-rule="evenodd" d="M12 24C18.6274 24 24 18.6274 24 12C24 5.37259 18.6274 0 12 0C5.37256 0 0 5.37259 0 12C0 18.6274 5.37256 24 12 24ZM19 8.3125C19 7.58762 18.4121 7 17.6875 7H6.3125C5.58765 7 5 7.58762 5 8.3125C5 8.72539 5.19446 9.11368 5.52502 9.3625L11.475 13.825C11.7867 14.0574 12.2133 14.0574 12.525 13.825L18.475 9.3625C18.8059 9.11368 19 8.72539 19 8.3125ZM19 10.0625L13.05 14.525C12.4265 14.9926 11.5735 14.9926 10.95 14.525L5 10.0625V15.75C5 16.7152 5.78345 17.5 6.75 17.5H17.25C18.2152 17.5 19 16.7152 19 15.75V10.0625Z" fill="currentColor"/>
</svg>

<svg xmlns="http://www.w3.org/2000/svg" fill="none" viewBox="0 0 24 24">
  <path fill="currentColor" fill-rule="evenodd" d="M12 24a12 12 0 1 0 0-24 12 12 0 0 0 0 24Zm7-15.69C19 7.6 18.41 7 17.69 7H6.3a1.31 1.31 0 0 0-.78 2.36l5.94 4.46c.32.24.74.24 1.05 0l5.96-4.46c.33-.25.52-.63.52-1.05Zm0 1.75-5.95 4.46c-.62.47-1.48.47-2.1 0L5 10.07v5.69c0 .97.78 1.75 1.75 1.75h10.5c.97 0 1.75-.78 1.75-1.75v-5.69Z" clip-rule="evenodd"/>
</svg>
